X: 11470
T: Echoes Of Killarney
R: slide
M: 12/8
K: Gmajor
|:cBA|G2 D G2 A B2 e e^de|d2 B G2 A BcB AGE|
G2 F G2 A B2 g gfe|d2 B A2 F G3:|
|:GB/c/d|g2 f e2 d e2 f gfe|d2 B A2 G B2 A A2 d|
[1 g2 a gfe e2 f gfe|d2 B cBA G3:|
[2 G3 G2 A B3 gfe|d2 B A2 F G3||

